T: Inion Ni Scannlian
M: 3/4
L: 1/8
K: Gmaj
G / / | Cmaj7 / / | G / /| G / / | C / / | Em / / | Am7 / / | D / / | G / / | Cmaj7 / / | G / / | G / / | C / /| Em / / | Am7 / / | D / / |Am / / |C / / | G / / | G / / |Am / / |C / / | Em / / | Em D G |C / / | Em / / | Am7 / / | D / / | Am7 / / | C / / | D7sus4 / / | D / / ||
